!!!!SEGMENT: pl-wtm--r-325-m--006_moniuszko-stanislaw--kontredanse-na-4-rece.krn
!!!cenid: 18xx:3032
!!!COM: Moniuszko, Stanisław
!!!COM-rismid: pe30008351
!!!CDT: 1819/05/05-1872/06/04
!!!CNT: Polish
!!!GTL: Kontredanse na 4 ręce
!!!OTL: Fig. 6
!!!PDT:
!!!AGN: Secular
!!!SMS-siglum: PL-Wtm
!!!SMS-shelfmark: R 325/M
!!!SMS-shelfwork: 006 G
!!!SMS-variant:
!!!SMS-altvar:
!!!NIFC-rismid: 1001094324
!!!URL-scan: http://repozytorium.nifc.pl/skany/pl-wtm-nut--r325m
!!!ONB-nifc: UWAGA: w zbiorze 6 kontredansów, numeracja plików zgodna ze źródłową
**kern	**kern	**dynam	**kern	**kern	**dynam
*group1	*group1	*	*group1	*group1	*
*part4	*part3	*part3	*part2	*part1	*part1
*staff4	*staff3	*	*staff2	*staff1	*
*Ipiano	*Iempty	*	*Ipiano	*Iempty	*
*I"[Piano four-hands]	*I''	*	*I"[Piano four-hands]	*I''	*
*clefF4	*clefF4	*	*clefG2	*clefG2	*
*k[f#c#]	*k[f#c#]	*	*k[f#c#]	*k[f#c#]	*
*D:	*D:	*	*D:	*D:	*
*M2/4	*M2/4	*	*M2/4	*M2/4	*
*>[A,B,C,D,C',E,F,G,H,G',I,B',C'',D',C''',E',J,K,L,K',M]	*>[A,B,C,D,C',E,F,G,H,G',I,B',C'',D',C''',E',J,K,L,K',M]	*	*>[A,B,C,D,C',E,F,G,H,G',I,B',C'',D',C''',E',J,K,L,K',M]	*>[A,B,C,D,C',E,F,G,H,G',I,B',C'',D',C''',E',J,K,L,K',M]	*
=1	=1	=1	=1	=1	=1
*>A	*>A	*	*>A	*>A	*
*kcancel	*kcancel	*	*kcancel	*kcancel	*
*all\right	*all\right	*	*all\right	*all\right	*
!LO:TX:t=P:problem:all\right:global	!LO:TX:t=P:problem:all\right:global	!	!LO:TX:t=P:problem:all\right:global	!LO:TX:t=P:problem:all\right:global	!
!	!LO:ACC:color=blue	!LO:DY:rj	!	!LO:TX:a:t=Fig. 6. Galop.:color=blue	!
8EE^</L 8E	8G^>\L 8B-X 8c#	ff	8g/ 8b-X 8cc#X	8gg^>\	.
(<16EE^</L	16B-^>\L 16c#	.	(<16g/LL 16b-	(>16ggg^>\LL	.
16E/JJ)	16G\JJ	.	16cc#/JJ	16gg\JJ	.
8EE^</	8G\ 8B- 8c#	.	8g/) 8b-	8eee^>\)	.
8r	8r	.	8r	8r	.
=2	=2	=2	=2	=2	=2
8DD^</L 8D	8G\L 8B-X 8d^>	.	8g/ 8b-X 8dd	8gg^>\	.
(<16DD/L	16B-\L 16d^>	.	(<16g/LL 16b-	(>16ggg^>\LL	.
16D/JJ)	16G\JJ	.	16dd/JJ	16gg\JJ)	.
8DD/	8B-\ 8d^>	.	8g/) 8b-	8ggg^>\	.
8r	8r	.	8r	8r	.
=3	=3	=3	=3	=3	=3
8CC#X/ 8C#X	8G\ 8B-X 8e	.	8g/ 8b-X 8ee	8gg\	.
8r	16E\LL	.	16e/LL	16ee\LL	.
.	16F#\JJ	.	16f#/JJ	16ff#\JJ	.
4r	16G\LL	.	16g/LL	16gg\LL	.
.	16F#\	.	16f#/	16ff#\	.
.	16G\	.	16g/	16gg\	.
.	16E\JJ	.	16e/JJ	16ee\JJ	.
!!LO:LB:g=original
=4	=4	=4	=4	=4	=4
!	!	!	!	!LO:TX:t=P:problem:koniec łuku bez początku	!
!	!	!	!LO:ACC:color=blue	!LO:ACC:color=blue	!
2r	8B-X^>\	.	8b-X/	8bb-X\	.
.	8r	.	8r	8r	.
.	4r	.	4r	4r	.
=5	=5	=5	=5	=5	=5
2r	(>4c#X\	p	4g/ 4ee	8r	p
.	.	.	.	(>16aa\LL	.
.	.	.	.	16aan\JJ)	.
.	4d\	.	4g/ 4dd	[>4aa\	.
=6	=6	=6	=6	=6	=6
2r	4d#X\	.	4g/ 4b#X	8aa\L]	.
.	.	.	.	(>16aa\L	.
.	.	.	.	16bb\JJ	.
.	4e\	.	4a/ 4cc#	8aa'>\L)	.
.	.	.	.	8aa'>\J	.
=7	=7	=7	=7	=7	=7
8AA^</	8A^>\)	.	8g^</ 8cc#	8ee^>\ 8aa	.
*	*clefG2	*	*	*	*
!	!LO:TX:a:t=(x)	!	!	!	!
8r	(>16g#X/LL	.	8r	8r	.
.	16a/JJ	.	.	.	.
!	!LO:TX:a:t=molto legato	!	!	!	!
4r	16b/LL	.	4r	4r	.
.	16a/	.	.	.	.
.	16g#/	.	.	.	.
.	16a/JJ	.	.	.	.
=8	=8	=8	=8	=8	=8
2r	16b/LL	.	2r	2r	.
.	16a/	.	.	.	.
.	16g#X/	.	.	.	.
.	16a/JJ	.	.	.	.
*	*rep	*	*	*	*
.	16b/LL	.	.	.	.
.	16a/	.	.	.	.
.	16g#/	.	.	.	.
.	16a/JJ	.	.	.	.
*	*Xrep	*	*	*	*
!!LO:LB:g=original
=9	=9	=9	=9	=9	=9
*	*rep	*	*	*8va	*
!	!LO:TX:b:t=senza espreſsione.	!	!	!LO:TX:b:t=molto staccato et espreſsivo	!
8D'\L	16b/LL	.	8.r	8aa^</	.
.	16a/	.	.	.	.
8F#'\J 8A	16g#X/	.	.	16r	.
.	16a/JJ	.	16ff#\ 16aa	16fff#\ 16aaa	.
!!mixed beam:problem
!LO:TX:t=P:problem:mixed beam	!	!	!LO:TX:a:t=Col 1m	!	!
8AA'</L	16b/LL	.	8ff#'>\Lyy 8gg#Xyy	8fff#'>\L 8ggg#X	.
.	16a/	.	.	.	.
8F#'>\J 8A\	16g#/	.	8ff#'>\Jyy 8aayy	8fff#'>\J 8aaa	.
.	16a/JJ	.	.	.	.
*	*Xrep	*	*	*	*
=10	=10	=10	=10	=10	=10
*rep	*rep	*	*	*	*
8D'\L	16b/LL	.	8ff#'>\Lyy 8bbyy	8fff#'>\L 8bbb	.
.	16a/	.	.	.	.
8F#'\J 8A	16g#X/	.	8ff#'>\yy 8aayy	8fff#'>\ 8aaa	.
.	16a/JJ	.	.	.	.
!!mixed beam:problem
!!LO:TX:t=P:problem:mixed beam
8AA'/L	16b/LL	.	8ff#'>\yy 8gg#Xyy	8fff#'>\ 8ggg#X	.
.	16a/	.	.	.	.
8F#'\J 8A\	16g#/	.	8ff#'>\Jyy 8aayy	8fff#'>\J 8aaa	.
.	16a/JJ	.	.	.	.
*Xrep	*Xrep	*	*	*	*
=11	=11	=11	=11	=11	=11
*	*	*	*2\right	*	*
*	*rep	*	*tremolo	*	*
8C#'>\L	16b/LL	.	8gg\L	8bbb/L	.
.	16a/	.	.	.	.
8E'>\J 8A	16g#X/	.	8gg\	8aaa/	.
.	16a/JJ	.	.	.	.
8AA'>\L	16b/LL	.	8gg\	8ggg#X/	.
.	16a/	.	.	.	.
8E'>\J 8A	16g#/	.	8gg\J	8aaa/J	.
.	16a/JJ	.	.	.	.
*	*Xrep	*	*Xtremolo	*	*
=12	=12	=12	=12	=12	=12
8D'\L	16b/LL	.	8ff#'>\Lyy 8bbyy	8fff#'>\L 8bbb	.
.	16a/	.	.	.	.
8F#'\J 8A	16g#X/	.	8ff#'>\yy 8aayy	8fff#'>\ 8aaa	.
.	16a/JJ	.	.	.	.
8D'\L	16b/LL	.	8dd'>\yy 8ff#yy	8ddd'>\ 8fff#	.
.	16a/	.	.	.	.
8A'\J	16f#/	.	8dd'>\Jyy	8ddd'>\J	.
.	16d/JJ)	.	.	.	.
=13!|:	=13!|:	=13!|:	=13!|:	=13!|:	=13!|:
*>B	*>B	*	*>B	*>B	*
!!mixed beam:problem
!LO:TX:t=P:problem:mixed beam	!	!	!LO:TX:b:t=E=:color=red	!	!
8GG'</L	(>16ee\LL	.	(>4bb^>\ (>4ddd	(>8.bbb^>\L 8.dddd	.
.	16dd\	.	.	.	.
8D'>\J 8B\	16cc#X\	.	.	.	.
.	16dd\JJ	.	.	32cccc#\LL 32eeee	.
.	.	.	.	32bbb\JJJ 32dddd	.
*rep	*	*	*	*	*
!!mixed beam:problem
!LO:TX:t=P:problem:mixed beam	!	!	!	!	!
8GG'</L	16ee\LL	.	8aa\L)) 8ccc#	8aaa'>\L) 8cccc#	.
.	16dd\	.	.	.	.
8D'>\J 8B\	16b\	.	8gg\J 8bb	8ggg'>\J 8bbb	.
.	16g\JJ	.	.	.	.
*Xrep	*	*	*	*	*
=14	=14	=14	=14	=14	=14
!!mixed beam:problem
!LO:TX:t=P:problem:mixed beam	!	!	!	!	!
8AA/L	16b/LL	.	8ff#'>\ 8aa	8fff#'>\L 8aaa	.
.	16a/	.	.	.	.
8D\J 8A\	16g#X/	.	8r	8aa'>\J	.
.	16a/JJ	.	.	.	.
*rep	*	*	*	*	*
!!mixed beam:problem
!LO:TX:t=P:problem:mixed beam	!	!	!	!	!
8AA/L	16b/LL	.	4dd^<T>\ 4ff#	4ddd^>T>\ 4fff#	.
.	16a/	.	.	.	.
8D\J 8A\	16f#/	.	.	.	.
.	16d/JJ	.	.	.	.
.	.	.	16qqee/LL	16qqeee/LL	.
.	.	.	16qqff#/JJ	16qqfff#/JJ	.
*Xrep	*	*	*	*	*
!!LO:LB:g=original
=15	=15	=15	=15	=15	=15
!!mixed beam:problem
!LO:TX:t=P:problem:mixed beam	!	!	!	!	!
8AA/L	16b/LL	.	8ee\ 8gg	8eee'>\L 8ggg	.
.	16a/	.	.	.	.
8E\J 8G\	16g#X/	.	8r	8aa'>\J	.
.	16a/JJ	.	.	.	.
*rep	*	*	*	*	*
!!mixed beam:problem
!LO:TX:t=P:problem:mixed beam	!LO:TX:t=(x)\n x	!	!LO:TX:a:t=x	!	!
8AA/L	16cc#/LL	.	4ee\ 4gg	(<4ccc#^</	.
.	16b/	.	.	.	.
8E\J 8G\	16a/	.	.	.	.
!	!LO:SIC:v:s:t=16gn	!	!	!	!
.	16g#/JJ	.	.	.	.
*Xrep	*	*	*	*	*
.	.	.	.	16qqbb/LL	.
.	.	.	.	16qqccc#/JJ)	.
=16	=16	=16	=16	=16	=16
8D\L	16f#/LL	.	8ff#\	8ddd/L	.
.	16g/	.	.	.	.
8F#\J 8A	16a/	.	8r	16ccc#/L	.
.	16b/JJ	.	.	16bb/JJ	.
!!mixed beam:problem
!LO:TX:t=P:problem:mixed beam	!	!	!	!	!
8AA/L	16g/LL	.	4cc#\ 4ee	(<16aa/LL	.
.	16e/	.	.	16ccc#/	.
8E\J 8A\	16a/	.	.	16eee/	.
.	16g/JJ)	.	.	16ggg/JJ	.
=17	=17	=17	=17	=17	=17
8D\L	(<16f#/LL	.	8dd\ 8ff#	8fff#\)	.
.	16a/	.	.	.	.
8F#\J 8A	16g#X/	.	16r	16r	.
!	!	!	!LO:TX:a:t=Col 1m	!	!
.	16a/JJ	.	16ee\yy 16aayy	16eee\ 16aaa	.
!!mixed beam:problem
!LO:TX:t=P:problem:mixed beam	!	!	!	!	!
8AA/L	16b/LL	.	8ff#'\Lyy 8gg#Xyy	8fff#'>\L 8ggg#X	.
.	16a/	.	.	.	.
8E\J 8A\	16g#/	.	8ff#'\Jyy 8aayy	8fff#'>\J 8aaa	.
.	16a/JJ	.	.	.	.
=18	=18	=18	=18	=18	=18
*rep	*	*	*	*	*
8D\L	16b/LL	.	8ff#'>\Lyy 8bbyy	8fff#'\L 8bbb	.
.	16a/	.	.	.	.
8F#\J 8A	16g#X/	.	8ff#'>\yy 8aayy	8fff#'\ 8aaa	.
.	16a/JJ	.	.	.	.
*	*rep	*	*	*	*
!!mixed beam:problem
!LO:TX:t=P:problem:mixed beam	!	!	!	!	!
8AA/L	16b/LL	.	8ff#'>\yy 8gg#Xyy	8fff#'\ 8ggg#X	.
.	16a/	.	.	.	.
8E\J 8A\	16g#/	.	8ff#'>\Jyy 8aayy	8fff#'\J 8aaa	.
.	16a/JJ	.	.	.	.
*Xrep	*Xrep	*	*	*	*
=19	=19	=19	=19	=19	=19
*	*rep	*	*	*	*
8E\L	16b/LL	.	8.aa^\Lyy 8.eeeyy	8.aaa^>\L 8.eeee	.
.	16a/	.	.	.	.
8A\J	16g#X/	.	.	.	.
.	16a/JJ	.	16gg\Jkyy 16bbyy	16ggg\Jk 16bbb	.
!!mixed beam:problem
!LO:TX:t=P:problem:mixed beam	!	!	!	!	!
8AA/L	16b/LL	.	8cc#'>\Lyy 8aayy	8ccc#'\L 8aaa	.
.	16a/	.	.	.	.
8E\J 8A\	16g#/	.	8ee'>\Jyy 8ggyy	8eee'\J 8ggg	.
.	16a/JJ	.	.	.	.
*	*Xrep	*	*	*	*
=20	=20	=20	=20	=20	=20
8D\L	16b/LL	.	8.dd^\Lyy 8.ff#yy 8.bbyy	8.ddd^>\L 8.fff# 8.bbb	.
.	16a/	.	.	.	.
8A\J	16g#X/	.	.	.	.
.	16a/JJ	.	16ff#\Jkyy 16aayy	16fff#\Jk 16aaa	.
8D\L	16b/LL	.	8dd'\Lyy 8ff#yy	8ddd'>\L 8fff#	.
.	16a/	.	.	.	.
8F#\J 8A	16f#/	.	8ddd'\Jyy	8dddd'>\J	.
.	16d/JJ)	.	.	.	.
!!LO:PB:g=original
=21	=21	=21	=21	=21	=21
!!mixed beam:problem
!LO:TX:t=P:problem:mixed beam	!	!	!	!	!
8GG/L	16ee\LL	.	(8.ccc#^\Lyy 8.eeeyy	(>8.cccc#^>\L 8.eeee	.
.	16dd\	.	.	.	.
8D\J 8E\ 8B\	16cc#\	.	.	.	.
.	16dd\JJ	.	32ddd\LLyy 32fff#yy	32dddd\LL 32ffff#	.
.	.	.	32ccc#\JJJyy 32eeeyy	32cccc#\JJJ 32eeee	.
*rep	*	*	*	*	*
!!mixed beam:problem
!LO:TX:t=P:problem:mixed beam	!	!	!	!	!
8GG/L	16ee\LL	.	8bb'\L)yy 8dddyy	8bbb'>\L) 8dddd	.
.	16dd\	.	.	.	.
8D\J 8E\ 8B\	16b\	.	8gg'\Jyy 8bbyy	8ggg'>\J 8bbb	.
.	16g\JJ	.	.	.	.
*Xrep	*	*	*	*	*
=22	=22	=22	=22	=22	=22
*	*	*	*^	*^	*
!!mixed beam:problem
!LO:TX:t=P:problem:mixed beam	!	!	!	!	!LO:TX:t=P:problem:mixed beam	!	!
8AA/L	16a\LL	.	8aa	8ryy	8fff#'>L\ 8aaa\	8ryy	.
.	16dd\	.	.	.	.	.	.
8D\J 8A\	16ff#\	.	8r	8ryy	8aa'</J	8ryy	.
.	16ee\JJ	.	.	.	.	.	.
*rep	*	*	*	*	*	*	*
!!mixed beam:problem
!LO:TX:t=P:problem:mixed beam	!	!	!	!	!	!	!
8AA/L	16dd\LL	.	(>4ff#/t>yy	4dd^<\yy	(>4fff#/t>	4ddd^<\	.
.	16cc#\	.	.	.	.	.	.
8D\J 8A\	16b\	.	.	.	.	.	.
.	16a\JJ	.	.	.	.	.	.
.	.	.	16qqee/LLyy	.	16qqeee/LL	.	.
.	.	.	16qqff#/JJyy	.	16qqfff#/JJ	.	.
*Xrep	*	*	*	*	*	*	*
=23	=23	=23	=23	=23	=23	=23	=23
!!mixed beam:problem
!LO:TX:t=P:problem:mixed beam	!	!	!LO:TX:t=P:problem:mixed beam	!	!LO:TX:t=P:problem:mixed beam	!	!
8AA/L	16g/LL	.	8ee'\L)yy 8gg\yy	8ryy	8eee'>\L) 8ggg\	8ryy	.
.	16a/	.	.	.	.	.	.
8E\J 8A\	16cc#/	.	8a'/Jyy	8rgyy	8aa'</J	8rgyy	.
.	16b/JJ	.	.	.	.	.	.
*rep	*	*	*	*	*	*	*
!!mixed beam:problem
!LO:TX:t=P:problem:mixed beam	!	!	!	!	!	!	!
8AA/L	16a/LL	.	(<4cc#t/yy	4g\yy	(<4ccc#t/	4gg\	.
.	16g/	.	.	.	.	.	.
8E\J 8A	16f#/	.	.	.	.	.	.
.	16e/JJ	.	.	.	.	.	.
.	.	.	16qqb/LLyy	.	16qqbb/LL	.	.
.	.	.	16qqcc#/JJ)yy	.	16qqccc#/JJ)	.	.
*Xrep	*	*	*	*	*	*	*
=24	=24	=24	=24	=24	=24	=24	=24
8D\L	16d/LL	.	8dd/Lyy	4.f#\yy	8ddd/L	4.ff#\	.
.	16f#/	.	.	.	.	.	.
8F#\J 8A	16a/	.	(<16ff#/Lyy	.	(<16fff#/L	.	.
.	16g/JJ	.	16a/JJ)yy	.	16aa/JJ)	.	.
*rep	*	*	*	*	*	*	*
8D\L	16f#/LL	.	8dd\	.	8ddd/	.	.
.	16g/	.	.	.	.	.	.
*	*	*	*v	*v	*	*	*
*	*	*	*	*v	*v	*
*	*	*	*	*X8va	*
*	*	*	*^	*^	*
!	!	!	!	!	!LO:TX:a:t=loco	!	!
8F#\J 8A	16f#/	.	8r	8ryy	16dd\LL	16ryy	.
.	16e/JJ	.	.	.	16dd\JJ	16ryy	.
*Xrep	*	*	*	*	*	*	*
*	*	*	*v	*v	*	*	*
*	*	*	*	*v	*v	*
=25	=25	=25	=25	=25	=25
*>C	*>C	*	*>C	*>C	*
!	!LO:TX:a:t=a=:color=red	!	!	!	!
8D\L	16d/LL	.	8r	8dd\|	.
.	16e/	.	.	.	.
8F#\J 8A	16d/	.	8dd\L	8ddd\L	.
.	16e/JJ	.	.	.	.
!	!	!	!	!LO:SIC:v:s:t=8cccn	!
8Cn\L	16f#/LL	.	8ccn\	8ccc-\	.
.	16d/	.	.	.	.
8D\J 8A	16e/	.	8dd\J	8ddd\J	.
.	16f#/JJ	.	.	.	.
=26	=26	=26	=26	=26	=26
8BB\L	16g/LL	.	8.ee\L	(>8.bb^>\L 8.eee	.
.	16f#/	.	.	.	.
8D\J 8G	16e/	.	.	.	.
.	16d/JJ	.	16dd\Jk	16ddd\Jk	.
!!mixed beam:problem
!LO:TX:t=P:problem:mixed beam	!	!	!	!	!
8GG/L	16b/LL	.	4r	8bb\L)|	.
.	16a/	.	.	.	.
8D\J 8B	16g/	.	.	8gg\J|	.
.	16fn/JJ	.	.	.	.
!!LO:LB:g=original
=27	=27	=27	=27	=27	=27
8E\L	8e/L	.	8r	8ee\|	.
8G#X\J 8B	16e/L	.	8eeT>\L	8eeeT>\L	.
.	16f#/JJ	.	.	.	.
8D\L	16g#X/LL	.	8dd#X\	8ddd#X\	.
.	16e/	.	.	.	.
8E\J 8B	16f#/	.	8ee\J	8eee\J	.
.	16g#/JJ	.	.	.	.
=28	=28	=28	=28	=28	=28
8C#\L	16a/LL	.	8.ff#\L	(>8.ccc#^>\L 8.fff#	.
.	16g#X/	.	.	.	.
8E\J 8A	16f#/	.	.	.	.
.	16e/JJ	.	16ee\Jk	16eee\K	.
8AA/L	16d/LL	.	16dd^>\LL	8eee'>\)	.
.	16c#/	.	16cc#\	.	.
*	*ped	*	*	*ped	*
8BB/J	16B/	.	16b\	8aa'>\J	.
.	16A/JJ	.	16a\JJ	.	.
=29	=29	=29	=29	=29	=29
*	*	*	*	*8va	*
!	!	!	!	!	!LO:DY:rj
8FFF#/ 8FF#	8A/L 8cn 8d#X 8f#	sff	8a\ 8ccn 8dd#X	8aa\ 8cccn 8ddd#X 8aaa	sfff
8r	8A/J 8c 8d#	.	16r	16r	.
!	!LO:TX:b:t=[coda]	!	!	!LO:TX:b:t=[coda]	!
.	.	.	16g#X\KL 16gg#X	16ggg#X\KL	.
8FF#/ 8F#	8r	.	8gn\ 8ggn	8gggn\	.
8r	8A/ 8c 8d#	.	8f#\J 8ff#	8fff#\J	.
=30	=30	=30	=30	=30	=30
*>D	*>D	*	*>D	*>D	*
!	!	!	!LO:TX:b:t==B:color=red	!	!
8GG\ 8G	8r	.	16ee\LL	16eee\LL	.
.	.	.	16ff#\	16fff#\	.
8r	8B/ 8e	.	16ee\	16eee\	.
.	.	.	16dd\JJ	16ddd\JJ	.
8GG#X\ 8G#X	8r	.	16cc#\LL	16ccc#\LL	.
.	.	.	16dd\	16ddd\	.
8r	8B/ 8d 8e#X	.	16cc#\	16ccc#\	.
.	.	.	16b\JJ	16bb\JJ	.
=31	=31	=31	=31	=31	=31
8AA\ 8A	8r	.	8a/	8aa^</	.
*	*	*	*	*X8va	*
8r	8A/ 8d 8f#	.	8r	(>16gg#X\LL	.
.	.	.	.	16aa\JJ	.
8AA\	8r	.	4r	16ccc#^>\LL	.
.	.	.	.	16bb\	.
8r	8G</ 8A< 8e	.	.	16aa\	.
.	.	.	.	16gg#\JJ)	.
=32	=32	=32	=32	=32	=32
8AA\	8r	.	2r	8ff#^>\L	.
8rGG	8F#</ 8A< 8d	.	.	(>16dd\L	.
.	.	.	.	16ff#\JJ	.
8AA\	8r	.	.	16aa^>\LL	.
.	.	.	.	16gg\	.
8rGG	8E</ 8A< 8c#	.	.	16ff#\	.
.	.	.	.	16ee\JJ)	.
!!LO:LB:g=original
=33	=33	=33	=33	=33	=33
*>C'	*>C'	*	*>C'	*>C'	*
!	!LO:TX:a:t=a=:color=red	!	!	!	!
8D\L	16d/LL	.	8r	8dd\|	.
.	16e/	.	.	.	.
8F#\J 8A	16d/	.	8dd\L	8ddd\L	.
.	16e/JJ	.	.	.	.
!	!	!	!	!LO:SIC:v:s:t=8cccn	!
8Cn\L	16f#/LL	.	8ccn\	8ccc-X\	.
.	16d/	.	.	.	.
8D\J 8A	16e/	.	8dd\J	8ddd\J	.
.	16f#/JJ	.	.	.	.
=34	=34	=34	=34	=34	=34
8BB\L	16g/LL	.	8.ee\L	(>8.bb^>\L 8.eee	.
.	16f#/	.	.	.	.
8D\J 8G	16e/	.	.	.	.
.	16d/JJ	.	16dd\Jk	16ddd\Jk	.
!!mixed beam:problem
!LO:TX:t=P:problem:mixed beam	!	!	!	!	!
8GG/L	16b/LL	.	4r	8bb\L)|	.
.	16a/	.	.	.	.
8D\J 8B\	16g/	.	.	8gg\J|	.
.	16fn/JJ	.	.	.	.
!!LO:LB:g=original
=35	=35	=35	=35	=35	=35
8E\L	8e/L	.	8r	8ee\|	.
8G#X\J 8B	16e/L	.	8eeT\L	8eeeT>\L	.
.	16f#/JJ	.	.	.	.
8D\L	16g#X/LL	.	8dd#X\	8ddd#X\	.
.	16e/	.	.	.	.
8E\J 8B	16f#/	.	8ee\J	8eee\J	.
.	16g#/JJ	.	.	.	.
=36	=36	=36	=36	=36	=36
8C#\L	16a/LL	.	8.ff#\L	(>8.ccc#^>\L 8.fff#	.
.	16g#X/	.	.	.	.
8E\J 8A	16f#/	.	.	.	.
.	16e/JJ	.	16ee\Jk	16eee\K	.
8AA/L	16d/LL	.	16dd^\LL	8eee'>\)	.
.	16c#/	.	16cc#\	.	.
*	*ped	*	*	*ped	*
8BB/J	16B/	.	16b\	8aa'>\J	.
.	16A/JJ	.	16a\JJ	.	.
=37	=37	=37	=37	=37	=37
*	*	*	*	*8va	*
!	!	!	!	!	!LO:DY:rj
8FFF#/ 8FF#	8A/L 8cn 8d#X 8f#	sff	8aa\ 8cccn 8ddd#X	8a\ 8ccn 8dd#X 8aa	sfff
8r	8A/J 8c 8d#	.	16r	16r	.
!	!LO:TX:b:t=[coda]	!	!	!LO:TX:b:t=[coda]	!
.	.	.	16g#X\KL 16gg#X	16ggg#X\KL	.
8FF#/ 8F#	8r	.	8gny\ 8ggn	8gggn\	.
!	!	!	!LO:TX:b:t==B:color=red	!	!
8r	8A/ 8c 8d#	.	8f#\J 8ff#	8fff#\J	.
=38	=38	=38	=38	=38	=38
*>E	*>E	*	*>E	*>E	*
8GG/ 8G	8r	.	16ee\LL	16eee\LL	.
.	.	.	16ff#\	16fff#\	.
8r	8B/ 8e	.	16ee\	16eee\	.
.	.	.	16dd\JJ	16ddd\JJ	.
8EE/ 8E	8r	.	16cc#\LL	16ccc#\LL	.
.	.	.	16dd\	16ddd\	.
8r	8B/ 8e 8g	.	16cc#\	16ccc#\	.
.	.	.	16b\JJ	16bb\JJ	.
*	*	*	*	*X8va	*
=39	=39	=39	=39	=39	=39
8FF#/ 8F#	8r	.	8a/L	8a^</	.
8r	8A/ 8c# 8d	.	8aJ	(>16gg#X\LL	.
.	.	.	.	16aa\JJ	.
8GG/ 8G	8r	.	4r	16ccc#^>\LL	.
.	.	.	.	16bb\	.
8r	8B/ 8d 8e	.	.	16aa\	.
.	.	.	.	16gg#\JJ)	.
=40	=40	=40	=40	=40	=40
8AA/	8r	.	2ryy	8ff#^>\	.
8r	8A/ 8d 8f#	.	.	(>16ee\LL	.
.	.	.	.	16ff#\JJ	.
4AAA/ 4AA	8r	.	.	16aa^>\LL	.
.	.	.	.	16gg\	.
.	8A/ 8c# 8e 8a	.	.	16ff#\	.
.	.	.	.	16ee\JJ)	.
=41	=41	=41	=41	=41	=41
*>F	*>F	*	*>F	*>F	*
!	!	!	!	!LO:TX:a:t==F:color=red	!
8DD/L 8D	8.r	.	8.r	8.dd\L	.
16r	.	.	.	.	.
*	*clefF4	*	*	*8va	*
(<16D/K	(>16d^>\KL	.	16dd\	(>16ddd^>\Jk	.
8DD'</)	8D'>\)	.	8dd\L	8dd\L)	.
8DD'</J	8D'>\J 8d	.	8dd\J	8dd'\J	.
=42	=42	=42	=42	=42	=42
8.DD/L	8.D^>\L 8.d	.	4.dd^>\	8.dd^\L	.
(<16D^>/Jk	(>16d^>\Jk	.	.	(>16ddd^>\Jk	.
*	*	*	*	*X8va	*
8DD/L)	8D\L)	.	.	8dd\L)	.
8DD/J	8D\J 8d	.	8r	8dd\J	.
!!LO:PB:g=original
=43	=43	=43	=43	=43	=43
8DD/	8D\L	.	4dd^>\	8dd'>\L	.
8r	8D^>\J 8d	.	.	8dd^>\J 8ddd	.
!LO:TX:b:t=P:coll' ottava mark:problem	!	!	!	!	!
*coll8ba	*	*	*	*	*
8DD 8DDD/^<	8r	.	4dd^>\	8r	.
*Xcoll8ba	*	*	*	*	*
8r	8D^>\ 8d	.	.	8dd^>\ 8ddd	.
=44	=44	=44	=44	=44	=44
!LO:TX:b:t=P:coll' ottava mark:problem	!	!	!	!	!
*coll8ba	*	*	*	*	*
8DD 8DDD/^>	8r	.	4dd^>\	8r	.
*Xcoll8ba	*	*	*	*	*
8r	8D^>\ 8d	.	.	8dd^>\ 8ddd	.
8DD/^>	8r	.	4dd^>\	8r	.
8r	8D^>\ 8d	.	.	8dd^>\ 8ddd	.
=45||	=45||	=45||	=45||	=45||	=45||
*kcancel	*kcancel	*	*kcancel	*kcancel	*
*k[b-e-]	*k[b-e-]	*	*k[b-e-]	*k[b-e-]	*
*>G	*>G	*	*>G	*>G	*
!	!	!	!	!LO:TX:a:t=C=:color=red	!
(<2FF#X/	8r	p	8.e-^</L	8.ee-^>\L	.
.	8D\L 8G	.	.	.	.
.	.	.	16d/K	16dd\K	.
.	8D\ 8G	.	8d/	8cc#X\	.
.	8D\J 8G	.	8d/J	8ccn\J	.
=46	=46	=46	=46	=46	=46
2GG/	8r	.	8r	(>8b-\L	.
*	*tremolo	*	*	*	*
.	8D\L 8B-	.	8d/L	8cc\	.
.	8D\ 8B-	.	8d/	8dd\)	.
.	8D\J 8B-	.	8g/J	8gg\J	.
*	*Xtremolo	*	*	*	*
=47	=47	=47	=47	=47	=47
2AA/	8r	.	8.g^</L	8.gg'>^>\L	.
*	*tremolo	*	*	*	*
.	8F\L 8c	.	.	.	.
.	.	.	16f/K	16ff\K	.
.	8F\ 8c	.	8f/	8een\	.
!	!	!	!	!LO:TX:a:t==D:color=red	!
.	8F\J 8c	.	8f/J	8ee-X\J	.
*	*Xtremolo	*	*	*	*
=48	=48	=48	=48	=48	=48
*>H	*>H	*	*>H	*>H	*
2BB-/)	8r	.	8r	8dd'>\L	.
*	*tremolo	*	*	*	*
.	8F\L 8B- 8d	.	8f'</L	8ff'>\	.
.	8F\ 8B- 8d	.	8b-'</	8bb-'>\	.
.	8F\J 8B- 8d	.	(<16dd/L	(>16ddd\L	.
.	.	.	16ee-/JJ)	16eee-\JJ)	.
*	*Xtremolo	*	*	*	*
!!LO:LB:g=original
=49	=49	=49	=49	=49	=49
4EE-/	8r	.	8dd'\L	8ddd'\L	.
*	*tremolo	*	*	*	*
.	8G\L 8c 8e-	.	8cc'\	8ccc'\	.
4r	8G\ 8c 8e-	.	8cc'\	8ccc'\	.
.	8G\J 8c 8e-	.	(>16cc\L	(>16ccc\L	.
.	.	.	16dd\JJ	16ddd\JJ	.
*	*Xtremolo	*	*	*	*
=50	=50	=50	=50	=50	=50
4FF/	8r	.	8b-/L)	8bb-'\L)	.
*	*tremolo	*	*	*	*
.	8F\L 8B- 8d	.	8f/J	8ff'\J	.
4r	8F\ 8B- 8d	.	(<16f/LL	(>16ff\LL	.
.	.	.	16g/	16gg\	.
.	8F\J 8B- 8d	.	16a/	16aa\	.
.	.	.	16b-/JJ	16bb-\JJ	.
*	*Xtremolo	*	*	*	*
=51	=51	=51	=51	=51	=51
8FF/	8r	.	8cc/L)	8ccc'\L)	.
8r	8F\L 8B- 8e-	.	8g/	8gg'\	.
8FF/	8F\ 8c 8e-	.	8a/	8aa'\	.
8r	8A\J 8c 8e-	.	8f/J	8ff'\J	.
=52	=52	=52	=52	=52	=52
4BBB-/ 4BB-	8r	.	(<16dd/LL	(>16ddd^>\LL	.
.	.	.	16b-/	16bb-\	.
.	8B-\L 8d	.	16f/JJ)	16ff\	.
.	.	.	16r	16ee-\JJ)	.
4r	8F\ 8A	.	4r	8dd\	.
.	8D\J 8B-	.	.	16dd\LL	.
.	.	.	.	16ee-\JJ	.
=53	=53	=53	=53	=53	=53
*^	*	*	*	*	*
*>G'	*>G'	*>G'	*	*>G'	*>G'	*
*	*2\right	*	*	*	*	*
!LO:N:vis=2	!	!	!	!LO:TX:a:t=C=D:color=red	!	!
8FFF#X/L	(<2FFF#\	8r	p	8.e-^</L	8.ee-^>\L	.
8FF/	.	8D\L 8G	.	.	.	.
.	.	.	.	16d/K	16dd\K	.
8FF/	.	8D\ 8G	.	8d/	8cc#X\	.
8FF/J	.	8D\J 8G	.	8d/J	8ccn\J	.
=54	=54	=54	=54	=54	=54	=54
!LO:N:vis=2	!	!	!	!	!	!
8GGG/L	2GGG\	8r	.	8r	(>8b-\L	.
*	*	*tremolo	*	*	*	*
8GG/	.	8D\L 8B-	.	8d/L	8cc\	.
8GG/	.	8D\ 8B-	.	8d/	8dd\)	.
!LO:TX:t=P:problem:łamanie systemu według najniższego głosu	!	!	!	!	!	!
8GG/J	.	8D\J 8B-	.	8g/J	8gg\J	.
*	*	*Xtremolo	*	*	*	*
!!LO:LB:g=original
=55	=55	=55	=55	=55	=55	=55
!LO:N:vis=2	!	!	!	!	!	!
8AAA/L	2AAA\)	8r	.	8.g^</L	8.gg^>\L	.
*	*	*tremolo	*	*	*	*
8AA/	.	8F\L 8c	.	.	.	.
.	.	.	.	16f/K	16ff\K	.
8AA/	.	8F\ 8c	.	8f/	8een\	.
8AA/J	.	8F\J 8c	.	8f/J	8ee-X\J	.
*	*	*Xtremolo	*	*	*	*
=56	=56	=56	=56	=56	=56	=56
*>I	*>I	*>I	*	*>I	*>I	*
!LO:N:vis=2	!	!	!	!	!	!
8BBB-/L	2BBB-\	8r	.	8r	(>16dd\LL	.
.	.	.	.	.	16ff\	.
*	*	*tremolo	*	*	*	*
8BB-/	.	8F\L 8B- 8d	.	(>16b-\LL	16bb-\	.
.	.	.	.	16cc\JJ	16ccc\JJ	.
8BB-/	.	8F\ 8B- 8d	.	8dd\)	8ddd\L)	.
8BB-/J	.	8F\J 8B- 8d	.	(>16dd\LL	(>16ddd\L	.
.	.	.	.	16ee-\JJ	16eee-\JJ	.
*	*	*Xtremolo	*	*	*	*
*v	*v	*	*	*	*	*
=57	=57	=57	=57	=57	=57
!!mixed beam:problem
!	!	!	!LO:TX:t=P:problem:mixed beam	!	!
2E-\	8r	.	8cc\L)	8ccc'\L)	.
*	*tremolo	*	*	*	*
.	8G\L 8c	.	8g/	8gg'\	.
.	8G\ 8c	.	8g/J	8gg'\	.
.	8G\J 8c	.	(>16cc\LL	(>16ccc\L	.
.	.	.	16dd\JJ	16ddd\JJ	.
*	*Xtremolo	*	*	*	*
=58	=58	=58	=58	=58	=58
2D\	8r	.	8b-/L)	8bb-\L)	.
*	*tremolo	*	*	*	*
.	8G\L 8B- 8d	.	8g/	8gg'\	.
.	8G\ 8B- 8d	.	8g/J	8gg'\	.
.	8G\J 8B- 8d	.	16f#X/LL	(>16ff#X\L	.
.	.	.	16g/JJ	16gg\JJ	.
*	*Xtremolo	*	*	*	*
=59	=59	=59	=59	=59	=59
*^	*	*	*	*	*
8C#X/	4AAA/	8r	.	8a/L	8aa\L)	.
8r	.	8G\ 8A 8en	.	16e-/L	(16een\L	.
.	.	.	.	16g/JJ	16gg\JJ	.
8D/	8ryy	8r	.	8fn/	(>8ffnTT\L)	.
8r	8ryy	8F\ 8A 8d	.	8r	16ee\L	.
.	.	.	.	.	16dd\JJ)	.
=60	=60	=60	=60	=60	=60	=60
!	!	!LO:SIC:v:n=1:s:t=8En	!	!LO:SIC:v:n=1:s:t=8en	!	!
8AA/	4AAA/	8E-\ 8A 8c#X	.	8e-/ 8a	8cc#X\ 8een 8aa	.
*	*	*clefG2	*	*	*	*
8r	.	16g#X/LL	.	8r	8r	.
.	.	16a/JJ	.	.	.	.
4r	4ryy	16bn/LL	.	4r	4r	.
.	.	16a/	.	.	.	.
.	.	16g#/	.	.	.	.
.	.	16a/JJ	.	.	.	.
*v	*v	*	*	*	*	*
!!LO:LB:g=original
=61||	=61||	=61||	=61||	=61||	=61||
*k[f#c#]	*k[f#c#]	*	*k[f#c#]	*k[f#c#]	*
2r	16bn/LL	.	2r	2r	.
.	16a/	.	.	.	.
.	16g#X/	.	.	.	.
.	16a/JJ	.	.	.	.
.	16b-X/LL	.	.	.	.
.	16a/	.	.	.	.
.	16g#/	.	.	.	.
.	16a/JJ	.	.	.	.
=62	=62	=62	=62	=62	=62
2r	16bn/LL	.	2r	2r	.
.	16a/	.	.	.	.
.	16g#X/	.	.	.	.
.	16a/JJ	.	.	.	.
.	16cc#/LL	.	.	.	.
.	16b/	.	.	.	.
.	16gn/	.	.	.	.
.	16e/JJ	.	.	.	.
4ryy	(>16cc#LL	.	4ryy	4ryy	.
.	16b	.	.	.	.
.	16gn	.	.	.	.
.	16eJJ)	.	.	.	.
=63	=63	=63	=63	=63	=63
*	*	*	*	*8va	*
8D\L	16f#/LL	.	8a^/	8aa^/	.
.	16g/	.	.	.	.
8F#\J 8A	16g#X/	.	16r	16r	.
!	!	!	!LO:TX:a:t=Col 1m	!LO:TX:t=P:problem:nuty wyświetlają się oktawę za wysoko	!
.	16a/JJ	.	16ff#\yy 16aayy	16fff#\ 16aaa	.
!!mixed beam:problem
!LO:TX:t=P:problem:mixed beam	!	!	!	!	!
8AA/L	16b/LL	.	8ff#'\Lyy 8gg#Xyy	8fff#'\L 8ggg#X	.
.	16a/	.	.	.	.
8F#\J 8A	16g#X/	.	8ff#'\Jyy 8aayy	8fff#'\J 8aaa	.
.	16a/JJ	.	.	.	.
=64	=64	=64	=64	=64	=64
8D\L	16dd/LL	.	8ff#'\Lyy 8bbyy	8fff#'\L 8bbb	.
.	16a/	.	.	.	.
8F#\J 8A	16g#X/	.	8ff#'\yy 8aayy	8fff#'\ 8aaa	.
.	16a/JJ	.	.	.	.
!!mixed beam:problem
!LO:TX:t=P:problem:mixed beam	!	!	!LO:SIC:v:n=2:s:t=8gg#	!LO:SIC:v:n=2:s:t=8ggg#	!
8AA/L	16b/LL	.	8ff#'\yy 8ggyy	8fff#'\ 8ggg	.
.	16a/	.	.	.	.
8F#\J 8A	16g#/	.	8ff#'\Jyy 8aayy	8fff#'\J 8aaa	.
.	16a/JJ	.	.	.	.
!!LO:PB:g=original
=65	=65	=65	=65	=65	=65
*	*	*	*^	*^	*
*	*	*	*	*tremolo	*	*tremolo	*
!	!LO:TX:t=P:problem:łuk zaczyna się przed pięciolinią	!	!	!	!	!	!
8E\L	(>16cc#/LL	.	8bb/Lyy	8gg\Lyy	8bbb/L	8ggg\L	.
.	16b/	.	.	.	.	.	.
8A\J	16a/	.	8aa/yy	8gg\yy	8aaa/	8ggg\	.
.	16g/JJ	.	.	.	.	.	.
!!mixed beam:problem
!LO:TX:t=P:problem:mixed beam	!	!	!	!	!	!	!
8AA/L	16f#/LL	.	8gg#X/yy	8ggn\yy	8ggg#X/	8gggn\	.
.	16a/	.	.	.	.	.	.
8E\J 8A	16g/	.	8aa/Jyy	8gg\Jyy	8aaa/J	8ggg\J	.
.	16e/JJ	.	.	.	.	.	.
*	*	*	*	*Xtremolo	*	*Xtremolo	*
*	*	*	*v	*v	*	*	*
*	*	*	*	*v	*v	*
=66	=66	=66	=66	=66	=66
2ryy	16d/LL	.	8dd\Lyy 8ff#yy 8bbyy	8ddd\L 8fff# 8bbb	.
.	16e/	.	.	.	.
.	16f#/	.	8aa\yy	8aaa\	.
.	16e/JJ	.	.	.	.
.	16d/LL	.	8ff#\yy	8fff#\	.
.	16f#/	.	.	.	.
.	16a/	.	8dd\Jyy	8ddd\J	.
.	16dd/JJ)	.	.	.	.
*	*	*	*	*X8va	*
=67:|!|:	=67:|!|:	=67:|!|:	=67:|!|:	=67:|!|:	=67:|!|:
*>B'	*>B'	*	*>B'	*>B'	*
!!mixed beam:problem
!LO:TX:t=P:problem:mixed beam	!	!	!LO:TX:b:t=E=F:color=red	!	!
8GG'</L	(>16ee\LL	.	(>4bb^>\ (>4ddd	(>8.bb^>\L 8.ddd	.
.	16dd\	.	.	.	.
8D'>\J 8B	16cc#X\	.	.	.	.
.	16dd\JJ	.	.	32ccc#\LL 32eee	.
.	.	.	.	32bb\JJJ 32ddd	.
!!mixed beam:problem
*rep	*	*	*	*	*
!LO:TX:t=P:problem:mixed beam	!	!	!	!	!
8GG'</L	16ee\LL	.	8aa\L)) 8ccc#	8aa'\L) 8ccc#	.
.	16dd\	.	.	.	.
8D'>\J 8B	16b\	.	8gg\J 8bb	8gg'\J 8bb	.
.	16g\JJ	.	.	.	.
*Xrep	*	*	*	*	*
=68	=68	=68	=68	=68	=68
!LO:TX:t=P:problem:mixed beam	!	!	!	!	!
8AA/L	16b/LL	.	8ff#'\ 8aa	8ff#'\L 8aa	.
.	16a/	.	.	.	.
8D\J 8A	16g#X/	.	8r	8a'\J	.
.	16a/JJ	.	.	.	.
*rep	*	*	*	*	*
8AA\L	16b/LL	.	4dd^<TT\ 4ff#	4dd^>TT\ 4ff#	.
.	16a/	.	.	.	.
8D\J 8A	16f#/	.	.	.	.
.	16d/JJ	.	.	.	.
.	.	.	16qqee/LL	16qqee/LL	.
.	.	.	16qqff#/JJ	16qqff#/JJ	.
*Xrep	*	*	*	*	*
!!LO:LB:g=original
=69	=69	=69	=69	=69	=69
!!mixed beam:problem
!LO:TX:t=P:problem:mixed beam	!	!	!	!	!
8AA/L	16b/LL	.	8ee\ 8gg	8ee'\L 8gg	.
.	16a/	.	.	.	.
8E\J 8G	16g#X/	.	8r	8a'\J	.
.	16a/JJ	.	.	.	.
!!mixed beam:problem
*rep	*	*	*	*	*
!LO:TX:t=P:problem:mixed beam	!LO:TX:t=(x)\n x	!	!	!	!
8AA/L	16cc#/LL	.	4ee\ 4gg	(<4cc#^<tt/	.
.	16b/	.	.	.	.
8E\J 8G	16a/	.	.	.	.
!	!LO:SIC:v:s=16gn:t=?	!	!	!	!
.	16g#/JJ	.	.	.	.
.	.	.	.	16qqb/LL	.
.	.	.	.	16qqcc#/JJ)	.
*Xrep	*	*	*	*	*
=70	=70	=70	=70	=70	=70
8D\L	16f#/LL	.	8ff#\	8dd/L	.
.	16g/	.	.	.	.
8F#\J 8A	16a/	.	8r	16cc#/L	.
.	16b/JJ	.	.	16b/JJ	.
!!mixed beam:problem
!LO:TX:t=P:problem:mixed beam	!	!	!	!	!
8AA/L	16g/LL	.	4cc#\ 4ee	(<16a/LL	.
.	16e/	.	.	16cc#/	.
8E\J 8A	16a/	.	.	16ee/	.
.	16g/JJ)	.	.	16gg/JJ	.
=71	=71	=71	=71	=71	=71
8D\L	(<16f#/LL	.	8dd\ 8ff#	8ff#\)	.
.	16a/	.	.	.	.
8F#\J 8A	16g#X/	.	16r	16r	.
!	!	!	!LO:TX:a:t=Col 1m	!	!
.	16a/JJ	.	16ee\yy 16aayy	16ee\ 16aa	.
!!mixed beam:problem
!LO:TX:t=P:problem:mixed beam	!	!	!	!	!
8AA/L	16b/LL	.	8ff#'\Lyy 8gg#Xyy	8ff#'\L 8gg#X	.
.	16a/	.	.	.	.
8E\J 8A	16g#/	.	8ff#'\Jyy 8aayy	8ff#'\J 8aa	.
.	16a/JJ	.	.	.	.
=72	=72	=72	=72	=72	=72
*rep	*	*	*	*	*
8D\L	16b/LL	.	8ff#'\Lyy 8bbyy	8ff#'\L 8bb	.
.	16a/	.	.	.	.
8F#\J 8A	16g#X/	.	8ff#'\yy 8aayy	8ff#'\ 8aa	.
.	16a/JJ	.	.	.	.
*	*rep	*	*	*	*
!!mixed beam:problem
!LO:TX:t=P:problem:mixed beam	!	!	!	!	!
8AA/L	16b/LL	.	8ff#'\yy 8gg#Xyy	8ff#'\ 8gg#X	.
.	16a/	.	.	.	.
8E\J 8A	16g#/	.	8ff#'\Jyy 8aayy	8ff#'\J 8aa	.
.	16a/JJ	.	.	.	.
*Xrep	*Xrep	*	*	*	*
=73	=73	=73	=73	=73	=73
*	*rep	*	*	*	*
8E\L	16b/LL	.	8.aa^>\Lyy 8.eeeyy	8.aa^>\L 8.eee	.
.	16a/	.	.	.	.
8A\J	16g#X/	.	.	.	.
.	16a/JJ	.	16gg\Jkyy 16bbyy	16gg\Jk 16bb	.
!!mixed beam:problem
!LO:TX:t=P:problem:mixed beam	!	!	!	!	!
8AA/L	16b/LL	.	8cc#'\Lyy 8aayy	8cc#'\L 8aa	.
.	16a/	.	.	.	.
8E\J 8A	16g#/	.	8ee'\Jyy 8ggyy	8ee'\J 8gg	.
.	16a/JJ	.	.	.	.
*	*Xrep	*	*	*	*
=74	=74	=74	=74	=74	=74
8D\L	16b/LL	.	8.dd^>\Lyy 8.ff#yy 8.bbyy	8.dd^>\L 8.ff# 8.bb	.
.	16a/	.	.	.	.
8A\J	16g#X/	.	.	.	.
.	16a/JJ	.	16ff#\Jkyy 16aayy	16ff#\Jk 16aa	.
8D\L	16b/LL	.	8dd'\Lyy 8ff#yy	8dd'\L 8ff#	.
.	16a/	.	.	.	.
8F#\J 8A	16f#/	.	8ddd'\Jyy	8ddd'\J	.
.	16d/JJ)	.	.	.	.
!!LO:PB:g=original
=75	=75	=75	=75	=75	=75
!!mixed beam:problem
!LO:TX:t=P:problem:mixed beam	!	!	!	!	!
8GG/L	16ee\LL	.	(>8.ccc#^>\Lyy 8.eeeyy	(8.ccc#^>\L 8.eee	.
.	16dd\	.	.	.	.
8D\J 8E 8B	16cc#\	.	.	.	.
.	16dd\JJ	.	32ddd\LLyy 32fff#yy	32ddd\LL 32fff#	.
.	.	.	32ccc#\JJJyy 32eeeyy	32ccc#\JJJ 32eee	.
*rep	*	*	*	*	*
!!mixed beam:problem
!LO:TX:t=P:problem:mixed beam	!	!	!	!	!
8GG\L	16ee\LL	.	8bb'\L)yy 8dddyy	8bb'\L) 8ddd	.
.	16dd\	.	.	.	.
8D\J 8E 8B	16b\	.	8gg'\Jyy 8byyb	8gg'\J 8bb	.
.	16g\JJ	.	.	.	.
*Xrep	*	*	*	*	*
=76	=76	=76	=76	=76	=76
*	*	*	*^	*^	*
!!mixed beam:problem
!LO:TX:t=P:problem:mixed beam	!	!	!LO:TX:t=P:problem:mixed beam	!	!LO:TX:t=P:problem:mixed beam	!	!
8AA/L	16a\LL	.	8aa\	8r	8ff#'>\L 8aa	8ryy	.
.	16dd\	.	.	.	.	.	.
8D\J 8A	16ff#\	.	8ryy	8ryy	8a'</J	8ryy	.
.	16ee\JJ	.	.	.	.	.	.
*rep	*	*	*	*	*	*	*
!!mixed beam:problem
!LO:TX:t=P:problem:mixed beam	!	!	!	!	!	!	!
8AA/L	16dd\LL	.	(>4ff#/ttyy	4dd^\yy	(>4ff#/tt	4dd^<\	.
.	16cc#\	.	.	.	.	.	.
8D\J 8A	16b\	.	.	.	.	.	.
.	16a\JJ	.	.	.	.	.	.
.	.	.	16qqee/LLyy	.	16qqee/LL	.	.
.	.	.	16qqff#/JJyy	.	16qqff#/JJ	.	.
*Xrep	*	*	*	*	*	*	*
=77	=77	=77	=77	=77	=77	=77	=77
!!mixed beam:problem
!LO:TX:t=P:problem:mixed beam	!	!	!LO:TX:t=P:problem:mixed beam	!	!LO:TX:t=P:problem:mixed beam	!	!
8AA/L	16g/LL	.	8ee'\L)yy 8ggyy	8ryy	8ee'>\L) 8gg	8ryy	.
.	16a/	.	.	.	.	.	.
8E\J 8A	16cc#/	.	8a'\Jyy	8rgyy	8a'</J	8rgyy	.
.	16b/JJ	.	.	.	.	.	.
!!mixed beam:problem
!LO:TX:t=P:problem:mixed beam	!	!	!	!	!	!	!
*rep	*	*	*	*	*	*	*
8AA\L	16a/LL	.	(<4cc#tt/yy	4g\yy	(<4cc#tt/	4g\	.
.	16g/	.	.	.	.	.	.
8E\J 8A	16f#/	.	.	.	.	.	.
.	16e/JJ	.	.	.	.	.	.
.	.	.	16qqb/LLyy	.	16qqb/LL	.	.
.	.	.	16qqcc#/JJ)yy	.	16qqcc#/JJ)	.	.
*Xrep	*	*	*	*	*	*	*
=78	=78	=78	=78	=78	=78	=78	=78
8D\L	16d/LL	.	8dd/Lyy	4.f#\yy	8dd/L	4.f#\	.
.	16f#/	.	.	.	.	.	.
8F#\J 8A	16a/	.	(<16ff#/Lyy	.	(<16ff#/L	.	.
.	16g/JJ	.	16a/JJ)yy	.	16a/JJ)	.	.
*rep	*	*	*	*	*	*	*
8D\L	16f#/LL	.	8dd\	.	8dd/	.	.
.	16g/	.	.	.	.	.	.
!	!	!	!	!	!LO:TX:a:t=loco	!	!
8F#\J 8A	16f#/	.	8r	8ryy	16dd\LL	16ryy	.
.	16e/JJ	.	.	.	16ddJJ	16ryy	.
*Xrep	*	*	*	*	*	*	*
*	*	*	*v	*v	*	*	*
*	*	*	*	*v	*v	*
=79	=79	=79	=79	=79	=79
*>C''	*>C''	*	*>C''	*>C''	*
!	!LO:TX:a:t=a=:color=red	!	!	!	!
8D\L	16d/LL	.	8r	8dd\|	.
.	16e/	.	.	.	.
8F#\J 8A	16d/	.	8dd\L	8ddd\L	.
.	16e/JJ	.	.	.	.
!	!	!	!	!LO:SIC:v:s:t=8cccn	!
8Cn\L	16f#/LL	.	8ccn\	8ccc-\	.
.	16d/	.	.	.	.
8D\J 8A	16e/	.	8dd\J	8ddd\J	.
.	16f#/JJ	.	.	.	.
=80	=80	=80	=80	=80	=80
8BB\L	16g/LL	.	8.ee\L	(>8.bb^\L 8.eee	.
.	16f#/	.	.	.	.
8D\J 8G	16e/	.	.	.	.
.	16d/JJ	.	16dd\Jk	16ddd\Jk	.
!!mixed beam:problem
!LO:TX:t=P:problem:mixed beam	!	!	!	!	!
8GG/L	16b/LL	.	4r	8bb\L)|	.
.	16a/	.	.	.	.
8D\J 8B	16g/	.	.	8gg\J|	.
.	16fn/JJ	.	.	.	.
!!LO:LB:g=original
=81	=81	=81	=81	=81	=81
8E\L	8e/L	.	8r	8ee\|	.
8G#X\J 8B	16e/L	.	8eeT\L	8eeeT\L	.
.	16f#/JJ	.	.	.	.
8D\L	16g#X/LL	.	8dd#X\	8ddd#X\	.
.	16e/	.	.	.	.
8E\J 8B	16f#/	.	8ee\J	8eee\J	.
.	16g#/JJ	.	.	.	.
=82	=82	=82	=82	=82	=82
8C#\L	16a/LL	.	8.ff#\L	(>8.ccc#^>\L 8.fff#	.
.	16g#X/	.	.	.	.
8E\J 8A	16f#/	.	.	.	.
.	16e/JJ	.	16ee\Jk	16eee\K	.
8AA/L	16d/LL	.	16dd^>\LL	8eee'\)	.
.	16c#/	.	16cc#\	.	.
*	*ped	*	*	*ped	*
8BB/J	16B/	.	16b\	8aa'\J	.
.	16A/JJ	.	16a\JJ	.	.
=83	=83	=83	=83	=83	=83
*	*	*	*	*8va	*
!	!	!	!	!LO:TX:t=P:problem:dźwięki powinny wyświetlać się o oktawę niżej	!LO:DY:rj
8FFF#/ 8FF#	8A/L 8cn 8d#X 8f#	sff	8a\ 8ccn 8dd#X	8aa\ 8cccn 8ddd#X 8aaa	sfff
8r	8A/J 8c 8d#	.	16r	16r	.
!	!LO:TX:b:t=[coda]	!	!	!LO:TX:b:t=[coda]	!
.	.	.	16g#X\KL 16gg#X	16ggg#X\KL	.
8FF#/ 8F#	8r	.	8gny\ 8ggn	8gggn\	.
8r	8A/ 8c 8d#	.	8f#\J 8ff#	8fff#\J	.
=84	=84	=84	=84	=84	=84
*>D'	*>D'	*	*>D'	*>D'	*
!	!	!	!LO:TX:b:t==B:color=red	!	!
8GG\ 8G	8r	.	16ee\LL	16eee\LL	.
.	.	.	16ff#\	16fff#\	.
8r	8B/ 8e	.	16ee\	16eee\	.
.	.	.	16dd\JJ	16ddd\JJ	.
8GG#X\ 8G#X	8r	.	16cc#\LL	16ccc#\LL	.
.	.	.	16dd\	16ddd\	.
8r	8B/ 8d 8e#X	.	16cc#\	16ccc#\	.
.	.	.	16b\JJ	16bb\JJ	.
=85	=85	=85	=85	=85	=85
8AA\ 8A	8r	.	8a/	8aa^</	.
*	*	*	*	*X8va	*
8r	8A/ 8d 8f#	.	8r	(>16gg#X\LL	.
.	.	.	.	16aa\JJ	.
8AA\	8r	.	4r	16ccc#^>\LL	.
.	.	.	.	16bb\	.
8r	8G</ 8A< 8e	.	.	16aa\	.
.	.	.	.	16gg#\JJ)	.
=86	=86	=86	=86	=86	=86
8AA\	8r	.	2r	8ee^>\L	.
8rGG	8F#</ 8A< 8d	.	.	(>16dd\L	.
.	.	.	.	16ff#\JJ	.
8AA\	8r	.	.	16aa^>\LL	.
.	.	.	.	16gg\	.
8rGG	8E</ 8A< 8c#	.	.	16ff#\	.
.	.	.	.	16ee\JJ)	.
!!LO:LB:g=original
=87	=87	=87	=87	=87	=87
*>C'''	*>C'''	*	*>C'''	*>C'''	*
!	!LO:TX:a:t=a=:color=red	!	!	!	!
8D\L	16d/LL	.	8r	8dd\|	.
.	16e/	.	.	.	.
8F#\J 8A	16d/	.	8dd\L	8ddd\L	.
.	16e/JJ	.	.	.	.
!	!	!	!	!LO:SIC:v:s:t=8cccn	!
8Cn\L	16f#/LL	.	8ccn\	8ccc-\	.
.	16d/	.	.	.	.
8D\J 8A	16e/	.	8dd\J	8ddd\J	.
.	16f#/JJ	.	.	.	.
=88	=88	=88	=88	=88	=88
8BB\L	16g/LL	.	8.ee\L	(>8.bb^\L 8.eee	.
.	16f#/	.	.	.	.
8D\J 8G	16e/	.	.	.	.
.	16d/JJ	.	16dd\Jk	16ddd\Jk	.
!!mixed beam:problem
!LO:TX:t=P:problem:mixed beam	!	!	!	!	!
8GG/L	16b/LL	.	4r	8bb\L)|	.
.	16a/	.	.	.	.
8D\J 8B	16g/	.	.	8gg\J|	.
.	16fn/JJ	.	.	.	.
!!LO:LB:g=original
=89	=89	=89	=89	=89	=89
8E\L	8e/L	.	8r	8ee\|	.
8G#X\J 8B	16e/L	.	8eeT\L	8eeeT\L	.
.	16f#/JJ	.	.	.	.
8D\L	16g#X/LL	.	8dd#X\	8ddd#X\	.
.	16e/	.	.	.	.
8E\J 8B	16f#/	.	8ee\J	8eee\J	.
.	16g#/JJ	.	.	.	.
=90	=90	=90	=90	=90	=90
8C#\L	16a/LL	.	8.ff#\L	(>8.ccc#^>\L 8.fff#	.
.	16g#X/	.	.	.	.
8E\J 8A	16f#/	.	.	.	.
.	16e/JJ	.	16ee\Jk	16eee\K	.
8AA/L	16d/LL	.	16dd^>\LL	8eee'\)	.
.	16c#/	.	16cc#\	.	.
*	*ped	*	*	*ped	*
8BB/J	16B/	.	16b\	8aa'\J	.
.	16A/JJ	.	16a\JJ	.	.
=91	=91	=91	=91	=91	=91
*	*	*	*	*8va	*
!	!	!	!	!LO:TX:t=P:problem:dźwięki powinny wyświetlać się o oktawę niżej	!LO:DY:rj
8FFF#/ 8FF#	8A/L 8cn 8d#X 8f#	sff	8a\ 8ccn 8dd#X	8aa\ 8cccn 8ddd#X 8aaa	sfff
8r	8A/J 8c 8d#	.	16r	16r	.
!	!LO:TX:b:t=[coda]	!	!	!LO:TX:b:t=[coda]	!
.	.	.	16g#X\KL 16gg#X	16ggg#X\KL	.
8FF#/ 8F#	8r	.	8gny\ 8ggn	8gggn\	.
8r	8A/ 8c 8d#	.	8f#\J 8ff#	8fff#\J	.
=92	=92	=92	=92	=92	=92
*>E'	*>E'	*	*>E'	*>E'	*
8GG/ 8G/	8r	.	16ee\LL	16eee\LL	.
.	.	.	16ff#\	16fff#\	.
8r	8B/ 8e	.	16ee\	16eee\	.
.	.	.	16dd\JJ	16ddd\JJ	.
8EE/ 8E/	8r	.	16cc#\LL	16ccc#\LL	.
.	.	.	16dd\	16ddd\	.
8r	8B/ 8e 8g	.	16cc#\	16ccc#\	.
.	.	.	16b\JJ	16bb\JJ	.
*	*	*	*	*X8va	*
=93	=93	=93	=93	=93	=93
8FF#/ 8F#	8r	.	8a/L	8a^</	.
8r	8A 8c# 8d	.	8a/J	(>16gg#X\LL	.
.	.	.	.	16aa\JJ	.
8GG/ 8G	8r	.	4r	16ccc#^>\LL	.
.	.	.	.	16bb\	.
8r	8B/ 8d 8e	.	.	16aa\	.
.	.	.	.	16gg#\JJ)	.
=94	=94	=94	=94	=94	=94
8AA/	8r	.	2ryy	8ff#^>\	.
8r	8A/ 8d 8f#	.	.	(>16ee\LL	.
.	.	.	.	16ff#\JJ	.
4AAA/ 4AA	8r	.	.	16aa^>\LL	.
.	.	.	.	16gg\	.
.	8A/ 8c# 8e 8a	.	.	16ff#\	.
.	.	.	.	16ee\JJ)	.
=95||	=95||	=95||	=95||	=95||	=95||
!	!	!	!	!LO:TX:a:t=Coda	!
8DD/ 8D	8d/ 8f#	.	2r	8r	.
*	*clefF4	*	*	*	*
8AAA/L	16AA/LL	.	.	16A/LL	.
.	16D/JJ	.	.	16d/JJ	.
8FF#/	16F#\LL	.	.	16f#/LL	.
.	16E\	.	.	16e/	.
16DD/L	16D\	.	.	16d/	.
16FF#/JJ	16F#\JJ	.	.	16f#/JJ	.
=96	=96	=96	=96	=96	=96
*>K	*>K	*	*>K	*>K	*
!	!	!	!	!LO:TX:a:t=G=:color=red	!
8AA/L	16A\LL	.	2r	16a/LL	.
.	16G\	.	.	16g/	.
16FF#/L	16F#\	.	.	16f#/	.
16AA/JJ	16A\JJ	.	.	16a/JJ	.
8D/L	16d\LL	.	.	16dd\LL	.
.	16c#\	.	.	16cc#\	.
16AA/L	16B\	.	.	16b\	.
16D/JJ	16d\JJ	.	.	16dd\JJ	.
*	*clefG2	*	*	*	*
=97	=97	=97	=97	=97	=97
8F#\L	16f#/LL	.	2r	16ff#\LL	.
.	16e/	.	.	16ee\	.
16D\L	16d/	.	.	16dd\	.
16F#\JJ	16f#/JJ	.	.	16ff#\JJ	.
8A\L	16a/LL	.	.	16aa\LL	.
.	16g/	.	.	16gg\	.
16F#\L	16f#/	.	.	16ff#\	.
16A\JJ	16a/JJ	.	.	16aa\JJ	.
!!LO:LB:g=original
=98	=98	=98	=98	=98	=98
8d\L	16dd\LL	.	2r	16ddd\LL	.
.	16cc#\	.	.	16ccc#\	.
16B\L	16b\	.	.	16bb\	.
16d\JJ	16dd\JJ	.	.	16ddd\JJ	.
8f#\L	16ff#\LL	.	.	16fff#\LL	.
.	16ee\	.	.	16eee\	.
8d\J	16dd\	.	.	16ddd\	.
.	16ff#\JJ	.	.	16fff#\JJ	.
=99	=99	=99	=99	=99	=99
8r	8a/	.	8aa\	8aaa\	.
*	*clefF4	*	*	*	*
*	*	*	*	*8va	*
!	!	!	!LO:TX:a:t=Col 1m	!LO:TX:t=P:problem:dźwięki wyświetlają się o oktawę za wysoko	!
8FFF#/L 8FF#	8F#^>\L 8A 8c#	.	8cc#^>\Lyy 8ff#yy 8aayy	8ccc#^>\L 8fff# 8aaa	.
8BBB/ 8BB	8F#^>\ 8B 8d	.	8dd^>\yy 8ee#Xyy 8gg#Xyy	8ddd^>\ 8eee#X 8ggg#X	.
8AAA/J 8AA	8A^>\J 8c# 8e	.	8cc#^>\Jyy 8eenyy 8ggnyy	8ccc#^>\J 8eeen 8gggn	.
=100	=100	=100	=100	=100	=100
8DD/L 8D	8A^>\L 8d 8f#	.	8dd^>/Lyy 8ff#/yy	8ddd^>\L 8fff#	.
8EE/ 8E	8A^>\ 8c# 8e	.	8g^>\yy 8a\yy 8cc#\yy	8gg^>\ 8aa 8ccc#	.
8FF#/ 8F#	8A^>\ 8d	.	8a^/yy 8dd/yy	8aa^>\ 8ddd	.
8GG/J 8G	8B^>\J 8d	.	8g/J 8b/	8dd^>\J 8gg 8bb	.
=101	=101	=101	=101	=101	=101
8AA/	8A\L 8d 8f#	.	8dd\L	8ff#\L 8aa	.
8r	8A\J 8d 8f#	.	16dd\L	16ddd\L	.
.	.	.	16ee\JJ	16eee\JJ	.
8AAA/ 8AA	8r	.	8ff#\L	8fff#\L	.
8r	8F#\ 8A 8d	.	16dd\L	16ccc#\L	.
.	.	.	16b\JJ	16bb\JJ	.
=102	=102	=102	=102	=102	=102
*>L	*>L	*	*>L	*>L	*
!	!	!	!	!LO:TX:a:t==H:color=red	!
8BBB/ 8BB	8r	.	8a/L	8aa/L	.
8r	8E\ 8A 8c#	.	16e/L	16ee/L	.
.	.	.	16f#/JJ	16ff#/JJ	.
*rep	*rep	*	*	*	*
8BBB/ 8BB	8r	.	8a/L	8aa/L	.
8r	8E\ 8A 8c#	.	16g/L	16gg/L	.
.	.	.	16e/JJ	16ee/JJ	.
*Xrep	*Xrep	*	*	*	*
=103	=103	=103	=103	=103	=103
8DD/L	8D\ 8F# 8A 8d	.	8f#/	8dd/ 8ff#	.
*	*	*	*	*X8va	*
8AAA/	16AA/LL	.	8r	16A/LL	.
.	16D/JJ	.	.	16d/JJ	.
8FF#/	16F#/LL	.	4r	16f#/LL	.
.	16E/	.	.	16e/	.
16DD/L	16D/	.	.	16d/	.
16FF#/JJ	16F#/JJ	.	.	16f#/JJ	.
!!LO:LB:g=original
=104	=104	=104	=104	=104	=104
*>K'	*>K'	*	*>K'	*>K'	*
!	!	!	!	!LO:TX:a:t=G=:color=red	!
8AA/L	16A\LL	.	2r	16a/LL	.
.	16G\	.	.	16g/	.
16FF#/L	16F#\	.	.	16f#/	.
16AA/JJ	16A\JJ	.	.	16a/JJ	.
8D/L	16d\LL	.	.	16dd\LL	.
.	16c#\	.	.	16cc#\	.
16AA/L	16B\	.	.	16b\	.
16D/JJ	16d\JJ	.	.	16dd\JJ	.
*	*clefG2	*	*	*	*
=105	=105	=105	=105	=105	=105
8F#\L	16f#/LL	.	2r	16ff#\LL	.
.	16e/	.	.	16ee\	.
16D\L	16d/	.	.	16dd\	.
16F#\JJ	16f#/JJ	.	.	16ff#\JJ	.
8A\L	16a/LL	.	.	16aa\LL	.
.	16g/	.	.	16gg\	.
16F#\L	16f#/	.	.	16ff#\	.
16A\JJ	16a/JJ	.	.	16aa\JJ	.
!!LO:LB:g=original
=106	=106	=106	=106	=106	=106
8d\L	16dd\LL	.	2r	16ddd\LL	.
.	16cc#\	.	.	16ccc#\	.
16B\L	16b\	.	.	16bb\	.
16d\JJ	16dd\JJ	.	.	16ddd\JJ	.
8f#\L	16ff#\LL	.	.	16fff#\LL	.
.	16ee\	.	.	16eee\	.
8d\J	16dd\	.	.	16ddd\	.
.	16ff#\JJ	.	.	16fff#\JJ	.
=107	=107	=107	=107	=107	=107
8r	8a/	.	8aa\	8aaa\	.
*	*clefF4	*	*	*	*
*	*	*	*	*8va	*
!	!	!	!LO:TX:a:t=Col 1m	!LO:TX:t=P:problem:dźwięki wyświetlają się o oktawę za wysoko	!
8FFF#/L 8FF#	8F#^>\L 8A 8c#	.	8cc#^>\Lyy 8ff#yy 8aayy	8ccc#^>\L 8fff# 8aaa	.
8BBB/ 8BB	8F#^>\ 8B 8d	.	8dd^>\yy 8ee#Xyy 8gg#Xyy	8ddd^>\ 8eee#X 8ggg#X	.
8AAA/J 8AA	8A^>\J 8c# 8e	.	8cc#^>\Jyy 8eenyy 8ggnyy	8ccc#^>\J 8eeen 8gggn	.
=108	=108	=108	=108	=108	=108
8DD/L 8D	8A^>\L 8d 8f#	.	8dd^>/Lyy 8ff#/yy	8ddd^>\L 8fff#	.
8EE/ 8E	8A^>\ 8c# 8e	.	8g^>\yy 8a\yy 8cc#\yy	8gg^>\ 8aa 8ccc#	.
8FF#/ 8F#	8A^>\ 8d	.	8a^/yy 8dd/yy	8aa^>\ 8ddd	.
8GG/J 8G	8B^>\J 8d	.	8g/J 8b/	8dd^>\J 8gg 8bb	.
=109	=109	=109	=109	=109	=109
8AA/	8A\L 8d 8f#	.	8dd\L	8ff#\L 8aa	.
8r	8A\J 8d 8f#	.	16dd\L	16ddd\L	.
.	.	.	16ee\JJ	16eee\JJ	.
8AAA/ 8AA	8r	.	8ff#\L	8fff#\L	.
8r	8F#\ 8A 8d	.	16dd\L	16ccc#\L	.
.	.	.	16b\JJ	16bb\JJ	.
!!LO:LB:g=original
=110	=110	=110	=110	=110	=110
*	*	*	*^	*^	*
*>M	*>M	*	*>M	*>M	*>M	*>M	*
8AAA/ 8AA	8F#\ 8A	.	8a\L	8ryy	8aa\L	8ryy	.
8r	8r	.	16dd\L	16ryy	16ddd\L	16ryy	.
.	.	.	16ff#\JJ	16ryy	16fff#\JJ	16ryy	.
4AAA/ 4AA	4E^<\ 4G 4A 4e	.	(<8.aa/L	4a\	(<8.aaa^>/L	4aa\	.
.	.	.	32gg/LL	.	32ggg/LL	.	.
.	.	.	32ee/JJJ)	.	32eee/JJJ)	.	.
*	*	*	*v	*v	*	*	*
*	*	*	*	*v	*v	*
=111	=111	=111	=111	=111	=111
!!mixed beam:problem
!LO:TX:t=P:problem:mixed beam	!	!	!	!	!
8DD/L 8D/	8F#\ 8A 8d	.	8dd\L	8ddd^>\L	.
*	*clefG2	*	*	*	*
8D\J 8A\	8d/L 8f# 8a	.	8ff#\ 8aa 8ddd	8fff#^>\J 8aaa 8dddd	.
*rep	*	*	*	*rep	*
!!mixed beam:problem
!LO:TX:t=P:problem:mixed beam	!	!	!LO:TX:t=P:problem:niewidoczne główki nut	!	!
8DD/L 8D/	8A</ 8d 8f#	.	8ff#\ 8aa 8ddd	8ddd^>\L	.
!	!	!	!LO:TX:t=P:problem:niewidoczne główki nut	!	!
8D\J 8A\	8d/J 8f# 8a	.	8ff#\J 8aa 8ddd	8fff#^>\J 8aaa 8dddd	.
*Xrep	*	*	*	*Xrep	*
=112	=112	=112	=112	=112	=112
*rep	*	*	*	*rep	*
!!mixed beam:problem
!	!	!	!LO:TX:t=P:problem:nieczytelny zapis	!	!
!LO:TX:t=P:problem:mixed beam	!	!	!LO:N:vis=1	!	!
8DD/L 8D/	8A</L 8d 8f#	.	2aa\L	8ddd^>\L	.
8D\J 8A\	8d/J 8f# 8a	.	.	8fff#^>\J 8aaa 8dddd	.
*Xrep	*rep	*	*	*	*
*rep	*	*	*	*	*
!!mixed beam:problem
!LO:TX:t=P:problem:mixed beam	!	!	!	!	!
8DD/L 8D/	8A</L 8d 8f#	.	.	8ddd^>\L	.
8D\J 8A\	8d/J 8f# 8a	.	.	8fff#^>\J 8aaa 8dddd	.
*Xrep	*Xrep	*	*	*Xrep	*
=113	=113	=113	=113	=113	=113
8DD\ 8D\	8A</ 8d 8f#	.	8dd\ 8ff# 8aa	8ddd\	.
8r	8r	.	8r	8r	.
*	*clefF4	*	*	*	*
8DD/ 8D/	8F#\ 8A 8d	.	8f#\ 8a 8dd	8ff#/ 8aa/	.
8r	8r	.	8r	8r	.
=114	=114	=114	=114	=114	=114
8FFF#/ 8FF#/	8D\ 8F# 8A 8d	.	8f#\ 8a 8dd	8ff#/ 8aa/ 8ddd/	.
8r	8r	.	8r	8r	.
*	*rep	*	*	*	*
8AAA/ 8AA/	8D\ 8F# 8A 8d	.	8f#\ 8a 8dd	8ff#/ 8aa 8ddd 8fff#	.
8r	8r	.	8r	8r	.
*	*Xrep	*	*	*	*
!!LO:LB:g=original
=115	=115	=115	=115	=115	=115
*coll8ba	*	*	*	*	*
!LO:TX:b:t=P:coll' ottava mark:problem	!	!	!	!	!
8DDD/ 8DD	4.AA/ 4.D 4.F# 4.A	.	4.d/	4.dd/	.
*Xcoll8ba	*	*	*	*	*
8r	.	.	.	.	.
8r	.	.	.	.	.
16DD/LL 16D	16A\LL 16d	.	16f#\LL 16a 16dd	16ff#\LL 16aa 16ddd 16fff#	.
!	!	!	!	!LO:TX:t=P:problem:niewidoczne główki nut	!
16DD/JJ 16D	16A\JJ 16d	.	16f#\JJ 16a 16dd	16ff#\JJ 16aa 16ddd 16fff#	.
=116	=116	=116	=116	=116	=116
4.DD/ 4.D	4.A\ 4.d	.	4.f#\ 4.a 4.dd	4.ff#\ 4.aa 4.ddd 4.fff#	.
*	*	*	*	*X8va	*
8DD/	16D\LL	.	16d/LL	8r	.
.	16D\JJ	.	16d/JJ	.	.
=117	=117	=117	=117	=117	=117
*tremolo	*	*	*	*	*
32DD/LLL	8D\	.	[>2d/	2r	.
32D/	.	.	.	.	.
32DD/	.	.	.	.	.
32D/	.	.	.	.	.
32DD/	8r	.	.	.	.
32D/	.	.	.	.	.
32DD/	.	.	.	.	.
32D/	.	.	.	.	.
32DD/	4r	.	.	.	.
32D/	.	.	.	.	.
32DD/	.	.	.	.	.
32D/	.	.	.	.	.
32DD/	.	.	.	.	.
32D/	.	.	.	.	.
32DD/	.	.	.	.	.
32D/JJJ	.	.	.	.	.
*Xtremolo	*	*	*	*	*
=118	=118	=118	=118	=118	=118
*rep	*	*	*	*	*
*tremolo	*	*	*	*	*
32DD/LLL	2r	.	4d/]	2r	.
32D/	.	.	.	.	.
32DD/	.	.	.	.	.
32D/	.	.	.	.	.
32DD/	.	.	.	.	.
32D/	.	.	.	.	.
32DD/	.	.	.	.	.
32D/	.	.	.	.	.
32DD/	.	.	4r	.	.
32D/	.	.	.	.	.
32DD/	.	.	.	.	.
32D/	.	.	.	.	.
32DD/	.	.	.	.	.
32D/	.	.	.	.	.
32DD/	.	.	.	.	.
32D/JJJ	.	.	.	.	.
!	!LO:CL:ed	!	!	!	!
*Xrep	*	*	*	*	*
*Xtremolo	*clefG2	*	*	*	*
=119	=119	=119	=119	=119	=119
!	!	!LO:DY:rj	!	!	!LO:DY:rj
8DD/ 8D	8A/ 8d 8f# 8a	sff	8dd\ 8ff# 8aa	8dd\ 8ff# 8aa 8ddd	sff
8r	8r	.	8r	8r	.
4r	4r	.	4r	4r	.
!!LO:PB:g=original
==	==	==	==	==	==
*-	*-	*-	*-	*-	*-
!!!system-decoration: [(s1,s2)],[(s3,s4)]
!!!AIN: 2 empty 2 piano
!!!ENC: Krzysztof Stępień
!!!END: 2021-09-06
!!!EED: Jędrzej Mróz
!!!ESR: 2021-09-19
!!!RDF**kern: > = above
!!!RDF**kern: < = below
!!!RDF**kern: @ = marked note, color=blue
!!!RDF**kern: | = vertical stroke
